!!!!SEGMENT: pl-gd--ee-1638--002-015_marenzio-luca--motettorum-pro-festis-totius-anni-in-festo-s-petri-apostoli-quem-dicunt.krn
!!!cenid: 15xx:1018
!!!COM: Marenzio, Luca
!!!COM-rismID: pe30003955
!!!CDT: ~1553-1599/08/22
!!!CNT: Italian
!!!GTL: Motettorum pro festis totius anni
!!!OTL: In festo S. Petri Apostoli/Quem dicunt
!!!OMV: 015
!!!PDT: 1588
!!!AGN:
!!!SMS-siglum: PL-GD
!!!SMS-shelfmark: Ee 1638
!!!SMS-shelfwork: 002-015 G
!!!SMS-variant:
!!!SMS-altvar:
!!!NIFC-rismSourceID: 1001202747
!!!NIFC-rismChildID: 990039238
!!!NIFC-islandoraID: pl-gd:57883
!!!URL-pdf-islandora: https://repozytorium.nifc.pl/islandora/object/pl-gd%3A57883/datastream/PDF/view
!!!URL-scan: https://polish.musicsources.pl/pl/lokalizacje/galeria/klocki-introligatorskie/655 @EN{Scan on Polish Music Sources Website} @PL{Skany w portalu Dziedzictwo Muzyki Polskiej w otwartym dostępie}
!!!ONB-nifc: UWAGA: Cantus: s. 623 (od ostatniego systemu po lewej), Altus: s. 471 (prawa), Tenor: s. 319, Bassus: s. 167 (prawa)
!!!AIN: 1 alto 1 bass 1 soprn 1 tenor
!!!key:
**kern	**text	**kern	**text	**kern	**text	**kern	**text
*part4	*part4	*part3	*part3	*part2	*part2	*part1	*part1
*staff4	*staff4	*staff3	*staff3	*staff2	*staff2	*staff1	*staff1
*I"BASSUS	*	*I"TENOR	*	*I"ALTUS	*	*I"CANTUS	*
*I'B	*	*I'T	*	*I'A	*	*I'S	*
*Ibass	*	*Itenor	*	*Ialto	*	*Isoprn	*
*ICvox	*	*ICvox	*	*ICvox	*	*ICvox	*
*clefF4	*	*clefC4	*	*clefC3	*	*clefC1	*
*k[]	*	*k[]	*	*k[]	*	*k[]	*
*C:	*	*C:	*	*C:	*	*C:	*
*M4/4	*	*M4/4	*	*M4/4	*	*M4/4	*
*met(C)	*	*met(C)	*	*met(C)	*	*met(C)	*
=1-	=1-	=1-	=1-	=1-	=1-	=1-	=1-
*xywh-#167:4525,567,3536,772	*	*	*	*	*	*	*
*	*	*xywh-#319:958,4420,3477,851	*	*	*	*	*
*	*	*	*	*xywh-#471:4478,523,3494,862	*	*	*
*	*	*	*	*	*	*xywh-#623:930,4417,3552,782	*
!	!	!	!	!LO:TX:a:t=In festo S. Petri Apoſtoli.	!	!LO:TX:b:t=Qve dicunt	!
1r	.	1r	.	0e	Qvem	1r	.
=2-	=2-	=2-	=2-	=2-	=2-	=2-	=2-
1r	.	1r	.	.	.	1r	.
=3-	=3-	=3-	=3-	=3-	=3-	=3-	=3-
1r	.	1r	.	1f	di-	1r	.
=4-	=4-	=4-	=4-	=4-	=4-	=4-	=4-
!LO:TX:a:t=In festo S. Petri Apoſtoli.	!	!	!	!	!	!	!
0E	Qvem	1r	.	1e	-cunt	1r	.
=5-	=5-	=5-	=5-	=5-	=5-	=5-	=5-
.	.	1r	.	2.g\	ho-	1r	.
.	.	.	.	4g\	-mi-	.	.
=6-	=6-	=6-	=6-	=6-	=6-	=6-	=6-
1F	di-	1r	.	1c	-nes	1r	.
=7-	=7-	=7-	=7-	=7-	=7-	=7-	=7-
1E	-cunt	0B	Qve[m]	1r	.	2r	.
.	.	.	.	.	.	1g\	Eſ-
=8-	=8-	=8-	=8-	=8-	=8-	=8-	=8-
2.G\	ho-	.	.	2r	.	.	.
.	.	.	.	1g\	Eſ-	2d/	ſe
4G\	-mi-	.	.	.	.	.	.
=9-	=9-	=9-	=9-	=9-	=9-	=9-	=9-
1C	-nes	1c	di-	.	.	2.e/	fi-
.	.	.	.	2c/	ſe	.	.
.	.	.	.	.	.	4e/	-li-
=10-	=10-	=10-	=10-	=10-	=10-	=10-	=10-
2r	.	1B	-cunt	2.d\	fi-	2d/	-um
1G\	Eſ-	.	.	.	.	1g\	ho-
.	.	.	.	4d\	-li-	.	.
=11-	=11-	=11-	=11-	=11-	=11-	=11-	=11-
.	.	2.d\	ho-	2B/	-um	.	.
2D/	ſe	.	.	1d\	ho-	2f#X/	-mi-
.	.	4d\	-mi-	.	.	.	.
=12-	=12-	=12-	=12-	=12-	=12-	=12-	=12-
2.E\	fi-	1G	-nes	.	.	1g	-nis
.	.	.	.	2c#X/	-mi-	.	.
4E\	-li-	.	.	.	.	.	.
=13-	=13-	=13-	=13-	=13-	=13-	=13-	=13-
2D/	-um	2r	.	4d\	-nis	1r	.
.	.	.	.	4cny/	.	.	.
1G\	ho-	1d\	Eſ-	4B/	.	.	.
.	.	.	.	4A/	.	.	.
=14-	=14-	=14-	=14-	=14-	=14-	=14-	=14-
.	.	.	.	4B/	.	1r	.
!	!	!	!	!LO:SIC:v:t=custos d	!	!	!
.	.	.	.	4c/	.	.	.
*	*	*	*	*xywh-#471:4484,1241,3507,685	*	*	*
!	!	!	!	!LO:LB:g=original	!	!	!
2F#X\	-mi-	2A/	ſe	4d\	.	.	.
.	.	.	.	4c/	.	.	.
=15-	=15-	=15-	=15-	=15-	=15-	=15-	=15-
!LO:SIC:v:t=custos E	!	!	!	!	!	!	!
0G	-nis	2.d\	fi-	1B	.	0b	Que
*xywh-#167:4520,1209,3556,713	*	*	*	*	*	*	*
!LO:LB:g=original	!	!	!	!	!	!	!
.	.	4d\	-li-	.	.	.	.
=16-	=16-	=16-	=16-	=16-	=16-	=16-	=16-
.	.	2B\	-um	1r	.	.	.
.	.	4e\	ho-	.	.	.	.
.	.	4d\	.	.	.	.	.
=17-	=17-	=17-	=17-	=17-	=17-	=17-	=17-
1r	.	4c\	.	0e	Que	1cc	di-
!	!	!LO:SIC:v:t=custos A	!	!	!	!	!
.	.	4B\	.	.	.	.	.
*	*	*xywh-#319:4499,520,3412,800	*	*	*	*	*
!	!	!LO:LB:g=original	!	!	!	!	!
!	!	!LO:TX:a:t=In festo S. Petri Apoſtoli.	!	!	!	!	!
.	.	2.A/	.	.	.	.	.
=18-	=18-	=18-	=18-	=18-	=18-	=18-	=18-
!	!	!	!	!	!	!LO:SIC:v:t=custos dd	!
1r	.	.	.	.	.	1b	-cunt
*	*	*	*	*	*	*xywh-#623:4514,555,3461,789	*
!	!	!	!	!	!	!LO:LB:g=original	!
.	.	4G/	.	.	.	.	.
.	.	4G/	.	.	.	.	.
.	.	8F/	.	.	.	.	.
.	.	8E/	.	.	.	.	.
=19-	=19-	=19-	=19-	=19-	=19-	=19-	=19-
1r	.	2D/	.	1f	di-	2.dd\	ho-
.	.	2D/	mi-	.	.	.	.
.	.	.	.	.	.	4dd\	-mi-
=20-	=20-	=20-	=20-	=20-	=20-	=20-	=20-
!	!	!	!	!	!	!LO:TX:a:t=In festo S. Petri Apoſtoli.	!
0E	Qve[m]	1C	-nis	1e	-cunt	2g/	-nes
.	.	.	.	.	.	2cc\	eſ-
=21-	=21-	=21-	=21-	=21-	=21-	=21-	=21-
.	.	1r	.	2.g\	ho-	2b\	-ſe
.	.	.	.	.	.	1cc\	fi-
.	.	.	.	4g\	-mi-	.	.
=22-	=22-	=22-	=22-	=22-	=22-	=22-	=22-
1Fny	di-	0c	Que	1a	-nes	.	.
.	.	.	.	.	.	2dd\	-li-
=23-	=23-	=23-	=23-	=23-	=23-	=23-	=23-
1E	-cunt	.	.	2r	.	1ee	-um
.	.	.	.	1g\	eſ-	.	.
=24-	=24-	=24-	=24-	=24-	=24-	=24-	=24-
2.G\	ho-	1B	di-	.	.	1r	.
.	.	.	.	2d\	-ſe	.	.
4G\	-mi-	.	.	.	.	.	.
=25-	=25-	=25-	=25-	=25-	=25-	=25-	=25-
1C	-nes	1c	-cunt	2.g\	fi-	0cc	que
.	.	.	.	4e\	-li-	.	.
=26-	=26-	=26-	=26-	=26-	=26-	=26-	=26-
1r	.	2.A/	ho-	2e\	-um	.	.
.	.	.	.	1a\	ho-	.	.
.	.	4A/	-mi-	.	.	.	.
=27-	=27-	=27-	=27-	=27-	=27-	=27-	=27-
1r	.	1e	-nes	.	.	1b	di-
.	.	.	.	2g#X\	-mi-	.	.
=28-	=28-	=28-	=28-	=28-	=28-	=28-	=28-
*	*ij	*	*	*	*	*	*
0F	Qve[m]	2r	.	1a	-nis	1cc	-cut
.	.	1c\	eſ-	.	.	.	.
=29-	=29-	=29-	=29-	=29-	=29-	=29-	=29-
.	.	.	.	1r	.	2.a\	ho-
.	.	2A/	-ſe	.	.	.	.
.	.	.	.	.	.	4a\	-mi-
=30-	=30-	=30-	=30-	=30-	=30-	=30-	=30-
1E	di-	2.G#X/	fi-	1r	.	1ee	-nes
.	.	4G#/	-li-	.	.	.	.
=31-	=31-	=31-	=31-	=31-	=31-	=31-	=31-
1F	-cunt	4A/	.	0f	que	2r	.
.	.	4B\	.	.	.	.	.
.	.	4c\	.	.	.	1a\	eſ-
.	.	4A/	.	.	.	.	.
=32-	=32-	=32-	=32-	=32-	=32-	=32-	=32-
!	!	!LO:SIC:v:t=custos d	!	!	!	!	!
2.D/	ho-	1d	um	.	.	.	.
*	*	*xywh-#319:4506,1174,3432,678	*	*	*	*	*
!	!	!LO:LB:g=original	!	!	!	!	!
.	.	.	.	.	.	2dd\	-ſe
4D/	-mi-	.	.	.	.	.	.
=33-	=33-	=33-	=33-	=33-	=33-	=33-	=33-
1A	-nes	1r	.	1e	di-	2.cc#X\	fi-
*	*Xij	*	*	*	*	*	*
.	.	.	.	.	.	4cc#\	-li-
=34-	=34-	=34-	=34-	=34-	=34-	=34-	=34-
2r	.	1.d	eſ-	1f	-cut	1dd	-um
1D\	eſ-	.	.	.	.	.	.
=35-	=35-	=35-	=35-	=35-	=35-	=35-	=35-
.	.	.	.	2.d\	ho-	2a\	ho-
2G\	-ſe	2B\	-ſe	.	.	2b\	-mi-
.	.	.	.	4d\	-mi-	.	.
=36-	=36-	=36-	=36-	=36-	=36-	=36-	=36-
2.F#X\	fi-	2.A/	fi-	1a	-nes	0dd	-nis
4F#\	li-	4A/	-li-	.	.	.	.
=37-	=37-	=37-	=37-	=37-	=37-	=37-	=37-
1G	-um	1B	-um	2r	.	.	.
!	!	!	!	!LO:SIC:v:t=custos g	!	!	!
.	.	.	.	1d\	eſ-	.	.
*	*	*	*	*xywh-#471:4491,1810,3474,698	*	*	*
!	!	!	!	!LO:LB:g=original	!	!	!
=38-	=38-	=38-	=38-	=38-	=38-	=38-	=38-
!LO:SIC:v:t=custos E	!	!	!	!	!	!	!
2D/	ho-	2A/	ho-	.	.	1r	.
*xywh-#167:4513,1811,3589,648	*	*	*	*	*	*	*
!LO:LB:g=original	!	!	!	!	!	!	!
2E\	-mi-	2Gny/	-mi-	2gny\	-ſe	.	.
=39-	=39-	=39-	=39-	=39-	=39-	=39-	=39-
*	*	*lig	*	*	*	*	*
!	!	!	!	!	!	!LO:SIC:v:t=custos g	!
1D	-nis	1A	.	2.f#X\	fi-	1r	.
*	*	*	*	*	*	*xywh-#623:4514,1247,3429,627	*
!	!	!	!	!	!	!LO:LB:g=original	!
.	.	.	.	4f#\	-li-	.	.
=40-	=40-	=40-	=40-	=40-	=40-	=40-	=40-
0BB	que	3%2B	.	2g\	-um	2r	.
*	*	*	*	*	*	*	*ij
.	.	.	.	2.d\	ho-	1g\	eſ-
*	*	*Xlig	*	*	*	*	*
.	.	3c\	.	.	.	.	.
=41-	=41-	=41-	=41-	=41-	=41-	=41-	=41-
.	.	1d	nis	.	.	.	.
.	.	.	.	4c/	.	.	.
.	.	.	.	4B/	.	2d/	-ſe
.	.	.	.	4A/	.	.	.
=42-	=42-	=42-	=42-	=42-	=42-	=42-	=42-
1C	di-	1r	.	2G/	.	2.e/	fi-
.	.	.	.	2A/	-mi-	.	.
.	.	.	.	.	.	4e/	-li-
=43-	=43-	=43-	=43-	=43-	=43-	=43-	=43-
*	*	*	*	*lig	*	*	*
1BB	-cunt	2r	.	1B	nis	2d/	-um
*	*	*	*ij	*	*	*	*
.	.	1d\	eſ-	.	.	1g\	ho-
=44-	=44-	=44-	=44-	=44-	=44-	=44-	=44-
2.D/	ho-	.	.	1A	.	.	.
.	.	2A/	-ſe	.	.	2f#X/	-mi-
4D/	-mi-	.	.	.	.	.	.
*	*	*	*	*Xlig	*	*	*
=45-	=45-	=45-	=45-	=45-	=45-	=45-	=45-
2GG/	nes	2.B\	fi-	2r	.	1g	-nis
*	*	*	*	*	*	*	*Xij
1G\	eſ-	.	.	2d\	que	.	.
.	.	4B\	-li-	.	.	.	.
=46-	=46-	=46-	=46-	=46-	=46-	=46-	=46-
.	.	2A/	-um	2e\	di-	1r	.
2D/	-ſe	1d\	ho-	2fny\	-cunt	.	.
=47-	=47-	=47-	=47-	=47-	=47-	=47-	=47-
2.E\	fi-	.	.	2.g\	ho-	1r	.
.	.	2c#X\	-mi-	.	.	.	.
4E\	-li-	.	.	4g\	-mi-	.	.
=48-	=48-	=48-	=48-	=48-	=48-	=48-	=48-
2D/	-um	4d\	.	4f\	.	2r	.
.	.	4cny\	.	4e\	.	.	.
*	*	*	*	*	*	*	*ij
1G\	ho-	4B\	.	4d\	.	1dd\	eſ-
!	!	!LO:SIC:v:t=custos d	!	!	!	!	!
.	.	4c\	.	4c/	.	.	.
*	*	*xywh-#319:4519,1718,3457,672	*	*	*	*	*
!	!	!LO:LB:g=original	!	!	!	!	!
=49-	=49-	=49-	=49-	=49-	=49-	=49-	=49-
.	.	2.d\	.	2B/	-nes	.	.
2F#X\	-mi-	.	.	2.d\	eſ-	2a\	-ſe
.	.	4c\	.	.	.	.	.
=50-	=50-	=50-	=50-	=50-	=50-	=50-	=50-
*	*	*lig	*	*	*	*	*
1G	-nis	1B	.	.	.	2.b\	fi-
.	.	.	.	4d\	-ſe	.	.
.	.	.	.	2.e\	fi-	.	.
.	.	.	.	.	.	4b\	-li-
=51-	=51-	=51-	=51-	=51-	=51-	=51-	=51-
1r	.	3%2c	.	.	.	2g/	-um
!	!	!	!	!LO:SIC:v:t=custos A	!	!	!
.	.	.	.	4e\	-li-	.	.
*	*	*	*	*xywh-#471:4464,2358,3455,685	*	*	*
!	!	!	!	!LO:LB:g=original	!	!	!
.	.	.	.	2A/	-um	1ccny\	ho-
*	*	*Xlig	*	*	*	*	*
.	.	6B\	.	.	.	.	.
.	.	6A\	.	.	.	.	.
=52-	=52-	=52-	=52-	=52-	=52-	=52-	=52-
1r	.	1G	nis	2.d\	ho-	.	.
*	*	*	*Xij	*	*	*	*
.	.	.	.	.	.	2b\	-mi-
.	.	.	.	4d\	-mi-	.	.
=53-	=53-	=53-	=53-	=53-	=53-	=53-	=53-
1r	.	1r	.	1c	-nis	1cc	-nis
*	*	*	*	*	*	*	*Xij
=54-	=54-	=54-	=54-	=54-	=54-	=54-	=54-
1.C	di-	1c	di-	1e	di-	1g	di-
=55-	=55-	=55-	=55-	=55-	=55-	=55-	=55-
.	.	1c	-xit	1e	-xit	1g	-xit
2D/	-xit	.	.	.	.	.	.
=56-	=56-	=56-	=56-	=56-	=56-	=56-	=56-
*	*	*	*	*lig	*	*	*
!LO:SIC:v:t=custos D	!	!	!	!	!	!	!
0E	Ie-	0G	Ie-	1B	Ie-	0g	Ie-
*xywh-#167:4513,2355,3530,661	*	*	*	*	*	*	*
!LO:LB:g=original	!	!	!	!	!	!	!
=57-	=57-	=57-	=57-	=57-	=57-	=57-	=57-
.	.	.	.	1c	.	.	.
*	*	*	*	*Xlig	*	*	*
=58-	=58-	=58-	=58-	=58-	=58-	=58-	=58-
!	!	!	!	!	!	!LO:SIC:v:t=custos g	!
0D	ſus	0A	ſus	0d	ſus	0f#X	ſus
*	*	*	*	*	*	*xywh-#623:4534,1758,3493,679	*
!	!	!	!	!	!	!LO:LB:g=original	!
=59-	=59-	=59-	=59-	=59-	=59-	=59-	=59-
.	.	.	.	.	.	.	.
=60-	=60-	=60-	=60-	=60-	=60-	=60-	=60-
2G\	di-	2B\	di-	2d\	di-	2g/	di-
2.G\	-ſci-	2.B\	-ſci-	2.d\	-ſci-	2.g/	-ſci-
=61-	=61-	=61-	=61-	=61-	=61-	=61-	=61-
.	.	.	.	.	.	.	.
4G\	pu-	4B\	pu-	4d\	pu-	4g/	pu-
2E\	-lis	2c\	-lis	2e\	-lis	2g/	-lis
=62-	=62-	=62-	=62-	=62-	=62-	=62-	=62-
*	*	*	*	*lig	*	*	*
2.Fny\	ſu-	1A	ſu-	1c	ſu-	2.a\	ſu-
4E\	.	.	.	.	.	4g/	.
=63-	=63-	=63-	=63-	=63-	=63-	=63-	=63-
1D	.	1.A	.	1d	.	1fny	.
*	*	*	*	*Xlig	*	*	*
=64-	=64-	=64-	=64-	=64-	=64-	=64-	=64-
0E	is	.	.	0B	-is	0e	-is
.	.	4G#X/	.	.	.	.	.
.	.	4F#X/	.	.	.	.	.
=65-	=65-	=65-	=65-	=65-	=65-	=65-	=65-
.	.	1G#X	is	.	.	.	.
=66-	=66-	=66-	=66-	=66-	=66-	=66-	=66-
1r	.	1r	.	2A/	reſ-	2a\	reſ-
.	.	.	.	2.d\	-pon-	2a\	-pon-
=67-	=67-	=67-	=67-	=67-	=67-	=67-	=67-
1r	.	1r	.	.	.	2f/	-dens
.	.	.	.	4c/	-dens	.	.
.	.	.	.	2B/	Pe-	2g/	Pe-
=68-	=68-	=68-	=68-	=68-	=68-	=68-	=68-
2AA/	reſ-	2e\	reſ-	1c	-trus	1a	-trus
!	!	!LO:SIC:v:t=custos c	!	!	!	!	!
2.A\	-pon-	2e\	-pon-	.	.	.	.
*	*	*xywh-#319:4519,2275,3412,653	*	*	*	*	*
!	!	!LO:LB:g=original	!	!	!	!	!
=69-	=69-	=69-	=69-	=69-	=69-	=69-	=69-
.	.	2c\	-dens	1r	.	1r	.
4G\	-dens	.	.	.	.	.	.
2F\	Pe-	2d\	Pe-	.	.	.	.
=70-	=70-	=70-	=70-	=70-	=70-	=70-	=70-
1E	-trus	1e	-trus	2G/	reſ-	2g/	reſ-
.	.	.	.	2.c/	-pon-	2g/	-pon-
=71-	=71-	=71-	=71-	=71-	=71-	=71-	=71-
1r	.	1r	.	.	.	2e/	-dens
.	.	.	.	4B/	-dens	.	.
.	.	.	.	2A/	Pe-	2f#X/	Pe-
=72-	=72-	=72-	=72-	=72-	=72-	=72-	=72-
1r	.	1r	.	1G	-trus	1g	-trus
=73-	=73-	=73-	=73-	=73-	=73-	=73-	=73-
!	!	!	!	!LO:SIC:v:t=custos B	!	!	!
0C	di-	0Gny	di-	0c	di-	0e	di-
*	*	*	*	*xywh-#471:4497,2894,3461,711	*	*	*
!	!	!	!	!LO:LB:g=original	!	!	!
=74-	=74-	=74-	=74-	=74-	=74-	=74-	=74-
.	.	.	.	.	.	.	.
=75-	=75-	=75-	=75-	=75-	=75-	=75-	=75-
2GG/	-xit	2G/	-xit	2B/	-xit	2d/	-xit
1G\	'I u	1B\	'I u	1d\	'I u	1g\	'I u
=76-	=76-	=76-	=76-	=76-	=76-	=76-	=76-
.	.	.	.	.	.	.	.
2E\	es	2c\	es	2e\	es	2g/	es
=77-	=77-	=77-	=77-	=77-	=77-	=77-	=77-
!LO:SIC:v:t=custos C	!	!	!	!	!	!	!
*	*	*	*	*	*	*xywh-#623:4547,2302,3513,672	*
0F	Chri-	2.A/	Chri-	2.c/	Chri-	0a	Chri-
*xywh-#167:4533,2905,3477,635	*	*	*	*	*	*	*
!LO:LB:g=original	!	!	!	!	!	!	!
.	.	4B\	.	8d\	.	.	.
.	.	.	.	8e\	.	.	.
=78-	=78-	=78-	=78-	=78-	=78-	=78-	=78-
.	.	1c	.	1f	.	.	.
=79-	=79-	=79-	=79-	=79-	=79-	=79-	=79-
1C	ſtus	2c\	ſtus	1e	ſtus	2g/	ſtus
.	.	2.e\	ſi-	.	.	2.cc\	ſi-
=80-	=80-	=80-	=80-	=80-	=80-	=80-	=80-
2.G\	ſi-	.	.	2.g\	ſi-	.	.
.	.	4e\	-li-	.	.	4cc\	-li-
.	.	2d\	-us	.	.	2b\	-us
4G\	-li-	.	.	4g\	-li-	.	.
=81-	=81-	=81-	=81-	=81-	=81-	=81-	=81-
2A\	-us	2.c\	De-	2e\	-us	2.a\	De-
1F\	De-	.	.	1f\	De-	.	.
.	.	4B\	.	.	.	4g\	.
=82-	=82-	=82-	=82-	=82-	=82-	=82-	=82-
.	.	4c\	.	.	.	4a\	.
.	.	4d\	.	.	.	4b\	.
2C/	i	2e\	.	2g\	i	2cc\	.
=83-	=83-	=83-	=83-	=83-	=83-	=83-	=83-
*lig	*	*	*	*lig	*	*	*
1D	-vi-	1d	i	1f	-vi-	2b\	-i
.	.	.	.	.	.	1a\	vi-
=84-	=84-	=84-	=84-	=84-	=84-	=84-	=84-
1E	.	1B	vi-	1e	.	.	.
.	.	.	.	.	.	2g#X/	.
*Xlig	*	*	*	*Xlig	*	*	*
=85-	=85-	=85-	=85-	=85-	=85-	=85-	=85-
2AA/	vi	1A	-vi	0e	-vi	0a	-vi
2A\	Et	.	.	.	.	.	.
=86-	=86-	=86-	=86-	=86-	=86-	=86-	=86-
2A\	e-	2r	.	.	.	.	.
!	!	!LO:SIC:v:t=custos e	!	!	!	!	!
2A\	-go	2e\	Et	.	.	.	.
*	*	*xywh-#319:4486,2749,3547,742	*	*	*	*	*
!	!	!LO:LB:g=original	!	!	!	!	!
=87-	=87-	=87-	=87-	=87-	=87-	=87-	=87-
2G\	di-	2e\	e-	2r	.	1r	.
2E\	-co	2e\	-go	2g\	Et	.	.
=88-	=88-	=88-	=88-	=88-	=88-	=88-	=88-
1G	ti-	2d\	di-	2g\	e-	2r	.
.	.	2B\	-co	2g\	-go	2dd\	Et
=89-	=89-	=89-	=89-	=89-	=89-	=89-	=89-
1D	-bi	1d	ti-	2f\	di-	2dd\	e-
.	.	.	.	2d\	-co	2dd\	-go
=90-	=90-	=90-	=90-	=90-	=90-	=90-	=90-
2r	.	1A	-bi	1f	ti-	2cc\	di-
2F\	Et	.	.	.	.	2a\	-co
=91-	=91-	=91-	=91-	=91-	=91-	=91-	=91-
2F\	e-	2r	.	1c	-bi	1cc	ti-
*	*	*	*ij	*	*	*	*
2F\	-go	2c\	Et	.	.	.	.
=92-	=92-	=92-	=92-	=92-	=92-	=92-	=92-
!LO:SIC:v:t=custos C	!	!	!	!	!	!	!
2E\	di-	2c\	e-	2r	.	1gny	-bi
*xywh-#167:4572,3435,3530,668	*	*	*	*	*	*	*
!LO:LB:g=original	!	!	!	!LO:SIC:v:t=custos g	!	!	!
*	*	*	*	*	*ij	*	*
2C/	-co	2c\	-go	2g\	Et	.	.
*	*	*	*	*xywh-#471:4458,3449,3455,672	*	*	*
!	!	!	!	!LO:LB:g=original	!	!	!
=93-	=93-	=93-	=93-	=93-	=93-	=93-	=93-
1E	ti-	2B\	di-	2g\	e-	1r	.
.	.	2G/	-co	2g\	-go	.	.
=94-	=94-	=94-	=94-	=94-	=94-	=94-	=94-
!	!	!	!	!	!	!LO:SIC:v:t=custos g	!
1D	-bi	2.A/	ti-	2f\	di-	1dd	qui-
*	*	*	*	*	*	*xywh-#623:4534,2845,3448,672	*
!	!	!	!	!	!	!LO:LB:g=original	!
.	.	.	.	2d\	-co	.	.
.	.	4B\	.	.	.	.	.
=95-	=95-	=95-	=95-	=95-	=95-	=95-	=95-
1r	.	1c	.	2e\	ti-	2g/	-a
.	.	.	.	2e\	bi	1cc\	tu
*	*	*	*	*	*Xij	*	*
=96-	=96-	=96-	=96-	=96-	=96-	=96-	=96-
1G	qui-	1d	bi	1g	qui-	.	.
*	*	*	*Xij	*	*	*	*
.	.	.	.	.	.	2b\	es
=97-	=97-	=97-	=97-	=97-	=97-	=97-	=97-
2C/	-a	1r	.	2e\	-a	1cc	Pe-
1c\	tu	.	.	1e\	tu	.	.
=98-	=98-	=98-	=98-	=98-	=98-	=98-	=98-
.	.	1G	qui-	.	.	1g	-trus
2B\	es	.	.	2d\	es	.	.
=99-	=99-	=99-	=99-	=99-	=99-	=99-	=99-
1c	Pe-	2C/	-a	1e	Pe-	1g	et
.	.	1c\	tu	.	.	.	.
=100-	=100-	=100-	=100-	=100-	=100-	=100-	=100-
1G	-trus	.	.	1d	-trus	1g	ſu-
.	.	2B\	es	.	.	.	.
=101-	=101-	=101-	=101-	=101-	=101-	=101-	=101-
2r	.	1c	Pe-	2r	.	1g	-per
1C/	tu	.	.	1e\	tu	.	.
=102-	=102-	=102-	=102-	=102-	=102-	=102-	=102-
.	.	1G	-trus	.	.	1g	hanc
2BB/	es	.	.	2d\	es	.	.
=103-	=103-	=103-	=103-	=103-	=103-	=103-	=103-
1C	Pe-	2r	.	1e	Pe-	0g	pe-
.	.	1c\	et	.	.	.	.
=104-	=104-	=104-	=104-	=104-	=104-	=104-	=104-
1G	-trus	.	.	1d	-trus	.	.
.	.	2B\	ſu-	.	.	.	.
=105-	=105-	=105-	=105-	=105-	=105-	=105-	=105-
!	!	!LO:SIC:v:t=custos e	!	!	!	!	!
2r	.	1c	per	2r	.	0g	-tram
*	*	*xywh-#319:4506,3351,3541,678	*	*	*	*	*
!	!	!LO:LB:g=original	!	!	!	!	!
*	*ij	*	*	*	*	*	*
1c\	tu	.	.	1e\	tu	.	.
=106-	=106-	=106-	=106-	=106-	=106-	=106-	=106-
.	.	2e\	hac	.	.	.	.
2B\	es	2.d\	pe-	2g\	es	.	.
=107-	=107-	=107-	=107-	=107-	=107-	=107-	=107-
1A	Pe-	.	.	4f\	Pe-	1r	.
.	.	4c\	.	4e\	.	.	.
!	!	!	!	!LO:SIC:v:t=custos d	!	!	!
.	.	2.c\	.	4e\	.	.	.
*	*	*	*	*xywh-#471:4458,3958,3520,744	*	*	*
!	!	!	!	!LO:LB:g=original	!	!	!
.	.	.	.	8d\	.	.	.
.	.	.	.	8c\	.	.	.
=108-	=108-	=108-	=108-	=108-	=108-	=108-	=108-
1G	-trus	.	.	1d	.	1r	.
*	*Xij	*	*	*	*	*	*
.	.	8B\	.	.	.	.	.
.	.	8A\	.	.	.	.	.
.	.	2B\	.	.	.	.	.
=109-	=109-	=109-	=109-	=109-	=109-	=109-	=109-
0C	et	1c	-tram	1e	trus	2r	.
.	.	.	.	.	.	2cc\	ae-
=110-	=110-	=110-	=110-	=110-	=110-	=110-	=110-
.	.	2r	.	1e	et	2a\	-di-
.	.	2c\	ae-	.	.	2g/	ſi-
=111-	=111-	=111-	=111-	=111-	=111-	=111-	=111-
0C	ſu-	2A/	-di-	0e	ſu-	2.cc\	-ca-
.	.	2G/	ſi-	.	.	.	.
.	.	.	.	.	.	4b\	.
=112-	=112-	=112-	=112-	=112-	=112-	=112-	=112-
.	.	2.c\	-ca-	.	.	2a\	.
.	.	.	.	.	.	2g/	-bo
.	.	4B\	.	.	.	.	.
=113-	=113-	=113-	=113-	=113-	=113-	=113-	=113-
!LO:SIC:v:t=custos C	!	!	!	!	!	!	!
0C	-per	2A/	.	0e	-per	2r	.
*xywh-#167:4579,3953,3575,720	*	*	*	*	*	*	*
!LO:LB:g=original	!	!	!	!	!	!	!
*	*	*	*	*	*	*	*ij
.	.	2G/	-bo	.	.	2cc\	ae-
=114-	=114-	=114-	=114-	=114-	=114-	=114-	=114-
.	.	2r	.	.	.	2a\	-di-
.	.	2c\	ae-	.	.	2g/	-ſi-
=115-	=115-	=115-	=115-	=115-	=115-	=115-	=115-
0C	hac	2A/	-di-	0e	hac	2.cc\	-ca-
.	.	2G/	ſi-	.	.	.	.
!	!	!	!	!	!	!LO:SIC:v:t=custos a	!
.	.	.	.	.	.	4b\	.
*	*	*	*	*	*	*xywh-#623:4534,3376,3506,672	*
!	!	!	!	!	!	!LO:LB:g=original	!
=116-	=116-	=116-	=116-	=116-	=116-	=116-	=116-
.	.	2.c\	-ca-	.	.	2a\	.
.	.	.	.	.	.	2g/	-bo
*	*	*	*	*	*	*	*Xij
.	.	4B\	.	.	.	.	.
=117-	=117-	=117-	=117-	=117-	=117-	=117-	=117-
0C	pe-	2A/	.	0e	pe-	2c/	Ec-
.	.	2G/	-bo	.	.	2.g/	-cle-
=118-	=118-	=118-	=118-	=118-	=118-	=118-	=118-
.	.	2C/	Ec-	.	.	.	.
.	.	.	.	.	.	4g/	-ſi-
.	.	2.G/	-cle-	.	.	2e/	-am
=119-	=119-	=119-	=119-	=119-	=119-	=119-	=119-
0.C	tram	.	.	2.e\	-tram	2.cc\	me-
!	!	!LO:SIC:v:t=custos E	!	!	!	!	!
.	.	4G/	-ſi-	.	.	.	.
*	*	*xywh-#319:4512,3921,3515,633	*	*	*	*	*
!	!	!LO:LB:g=original	!	!	!	!	!
.	.	2E/	-am	.	.	.	.
.	.	.	.	4f\	.	4dd\	.
=120-	=120-	=120-	=120-	=120-	=120-	=120-	=120-
.	.	2.c\	me-	4g\	.	4ee\	.
.	.	.	.	4f\	.	4dd\	.
.	.	.	.	4e\	.	4cc\	.
.	.	4d\	.	4d\	.	4b\	.
=121-	=121-	=121-	=121-	=121-	=121-	=121-	=121-
.	.	4e\	.	4c/	.	4a\	.
.	.	4d\	.	4d\	.	4g/	.
.	.	4c\	.	4e\	.	1cc\	.
.	.	4B\	.	4d\	.	.	.
=122-	=122-	=122-	=122-	=122-	=122-	=122-	=122-
1r	.	2A/	.	1.c	.	.	.
.	.	4G/	.	.	.	4b\	.
.	.	4Fny/	.	.	.	4a\	.
=123-	=123-	=123-	=123-	=123-	=123-	=123-	=123-
1r	.	0E	am	.	.	2g/	.
.	.	.	.	4B/	.	2.a\	.
.	.	.	.	4A/	.	.	.
=124-	=124-	=124-	=124-	=124-	=124-	=124-	=124-
1r	.	.	.	1B	.	.	.
.	.	.	.	.	.	8g#X/	.
.	.	.	.	.	.	8f#X/	.
.	.	.	.	.	.	2g#X/	.
=125-	=125-	=125-	=125-	=125-	=125-	=125-	=125-
2r	.	2.A/	.	2r	.	1a	-am
!	!	!	!	!LO:SIC:v:t=custos A	!	!	!
2A\	ae-	.	.	2c/	ae-	.	.
*	*	*	*	*xywh-#471:4530,4514,3468,907	*	*	*
!	!	!	!	!LO:LB:g=original	!	!	!
.	.	4B\	.	.	.	.	.
=126-	=126-	=126-	=126-	=126-	=126-	=126-	=126-
2F\	-di	1c	.	2A/	-di	2r	.
!	!	!	!	!	!	!LO:SIC:v:t=custos f	!
2E\	ſi-	.	.	2G/	ſi-	2gny/	ae-
*	*	*	*	*	*	*xywh-#623:4534,3920,3526,685	*
!	!	!	!	!	!	!LO:LB:g=original	!
=127-	=127-	=127-	=127-	=127-	=127-	=127-	=127-
2.A\	-ca-	2r	.	1.c	-ca-	2fny/	-di
.	.	2c\	ae-	.	.	2e/	ſi-
4G\	.	.	.	.	.	.	.
=128-	=128-	=128-	=128-	=128-	=128-	=128-	=128-
2F\	.	2A/	-di	.	.	2.cc\	-ca-
2E\	-bo	2G/	ſi-	2e\	-bo	.	.
.	.	.	.	.	.	4b\	.
=129-	=129-	=129-	=129-	=129-	=129-	=129-	=129-
2r	.	2.c\	-ca-	1e	Ec-	2a\	.
2C/	ae-	.	.	.	.	2g/	-bo
.	.	4B\	.	.	.	.	.
=130-	=130-	=130-	=130-	=130-	=130-	=130-	=130-
2F\	-di	2A/	.	1.c	cle-	2r	.
*	*	*	*	*	*	*	*ij
2E\	ſi-	2G/	-bo	.	.	2cc\	ae-
=131-	=131-	=131-	=131-	=131-	=131-	=131-	=131-
2F\	-ca-	2r	.	.	.	2a\	-di
2C/	bo	2c\	ae-	2e\	-ſi-	2g/	ſi-
=132-	=132-	=132-	=132-	=132-	=132-	=132-	=132-
2r	.	2A/	-di	0e	-am	2.c/	-ca-
!	!	!LO:SIC:v:t=custos c	!	!	!	!	!
2C/	ae-	2G/	ſi-	.	.	.	.
*	*	*xywh-#319:4499,4433,3489,806	*	*	*	*	*
!	!	!LO:LB:g=original	!	!	!	!	!
.	.	.	.	.	.	4d/	.
=133-	=133-	=133-	=133-	=133-	=133-	=133-	=133-
!LO:SIC:v:t=custos GG	!	!	!	!	!	!	!
2AA/	-di	2.c\	-ca-	.	.	4e/	.
*xywh-#167:4605,4503,3464,877	*	*	*	*	*	*	*
!LO:LB:g=original	!	!	!	!	!	!	!
.	.	.	.	.	.	4f/	.
2GG/	ſi-	.	.	.	.	2g/	.
.	.	4B\	.	.	.	.	.
=134-	=134-	=134-	=134-	=134-	=134-	=134-	=134-
2.C/	-ca-	2A/	.	1e	me-	2c/	bo
*	*	*	*	*	*	*	*Xij
.	.	2G/	-bo	.	.	2.e/	Ec-
4D/	.	.	.	.	.	.	.
=135-	=135-	=135-	=135-	=135-	=135-	=135-	=135-
*	*	*lig	*	*	*	*	*
1E	.	1G	Ec-	2.B/	.	.	.
.	.	.	.	.	.	4f/	.
.	.	.	.	.	.	2.g/	.
.	.	.	.	4c/	.	.	.
=136-	=136-	=136-	=136-	=136-	=136-	=136-	=136-
1D	bo	1A	.	1d	-am	.	.
.	.	.	.	.	.	8f/	.
.	.	.	.	.	.	8e/	.
.	.	.	.	.	.	2f#X/	.
*	*	*Xlig	*	*	*	*	*
=137-	=137-	=137-	=137-	=137-	=137-	=137-	=137-
1GG	Ec-	2.B\	cle-	2d\	Ec-	2.g/	cle-
.	.	.	.	2.g\	cle	.	.
!	!	!	!	!	!	!LO:SIC:v:t=custos e	!
.	.	4B\	-ſi-	.	.	4d/	-ſi-
*	*	*	*	*	*	*xywh-#623:4521,4450,3577,834	*
!	!	!	!	!	!	!LO:LB:g=original	!
=138-	=138-	=138-	=138-	=138-	=138-	=138-	=138-
2.C/	-cle-	1G	-am	.	.	2e/	-am
.	.	.	.	4g\	ſi-	.	.
.	.	.	.	2e\	-am	2.cc\	me-
4C/	-ſi-	.	.	.	.	.	.
=139-	=139-	=139-	=139-	=139-	=139-	=139-	=139-
1AA	-am	2.c\	me-	1e	me-	.	.
.	.	.	.	.	.	4dd\	.
.	.	.	.	.	.	4ee\	.
.	.	4B\	.	.	.	4dd\	.
=140-	=140-	=140-	=140-	=140-	=140-	=140-	=140-
2.F\	me-	4A/	.	2f\	-am	4cc\	.
.	.	4G/	.	.	.	4b\	.
.	.	2.F/	.	1c\	Ec-	4a\	.
4G\	.	.	.	.	.	4g/	.
=141-	=141-	=141-	=141-	=141-	=141-	=141-	=141-
4A\	.	.	.	.	.	2.fny/	.
4G\	.	4E/	.	.	.	.	.
4F\	.	4D/	.	1f\	cle-	.	.
4E\	.	4E/	.	.	.	4g/	.
=142-	=142-	=142-	=142-	=142-	=142-	=142-	=142-
2D/	.	4F/	.	.	.	4a\	.
.	.	4G/	.	.	.	4b\	.
4C/	.	4A/	.	2e\	-ſi-	4cc\	.
4BB/	.	4B\	.	.	.	4dd\	.
=143-	=143-	=143-	=143-	=143-	=143-	=143-	=143-
0AA	.	0c	.	1e	-am	2.ee\	.
.	.	.	.	.	.	4dd\	.
=144-	=144-	=144-	=144-	=144-	=144-	=144-	=144-
.	.	.	.	1e	me-	4cc\	.
.	.	.	.	.	.	4b\	.
.	.	.	.	.	.	1a\	.
=145-	=145-	=145-	=145-	=145-	=145-	=145-	=145-
00E	am.	00B	-am.	00e	-am	.	.
.	.	.	.	.	.	4g#X/	.
.	.	.	.	.	.	4f#X/	.
=146-	=146-	=146-	=146-	=146-	=146-	=146-	=146-
.	.	.	.	.	.	00g#X	am
=147-	=147-	=147-	=147-	=147-	=147-	=147-	=147-
.	.	.	.	.	.	.	.
=148-	=148-	=148-	=148-	=148-	=148-	=148-	=148-
.	.	.	.	.	.	.	.
=149-	=149-	=149-	=149-	=149-	=149-	=149-	=149-
1rnyy	.	1rnyy	.	1rnyy	.	.	.
=-	=-	=-	=-	=-	=-	=-	=-
*-	*-	*-	*-	*-	*-	*-	*-
!!!system-decoration: [(s1,s2,s3,s4)]
!!!ENC: Marta Opryszak
!!!END: 2022-07-02
!!!ENC: Julita Ruszuk
!!!END: 2022-07-05
!!!YEC: Copyright 2022 Narodowy Instytut Fryderyka Chopina (https://polishscores.org)
!!!YEM: License CC-BY-4.0 (https://creativecommons.org/licenses/by/4.0)
!!!IIIF: https://repozytorium.nifc.pl/islandora/object/pl-gd%3A57883/datastream/IIIF/view
!!!ENC-iiif: Lidia Bialucha
!!!END-iiif: 2022-09-08
